X: 3270
T: The SPINNING WHEEL
%R: jig
B: James Kerr "Merry Melodies" v.3 p.30 #2__
Z: 2016 John Chambers <jc:trillian.mit.edu>
M: 6/8
L: 1/8
K: G
uD |\
vG2vG uB2uG | c2c d2B | G2G B2A | DEF G2D |\
G2G B2G | cBc d2B | G2G B2A | DEF G2 :|
|: d |\
d2d dBG | G2G F2E | DFA f2e | d2d ^c3 |\
=cdc g2B | dcc cBA | GAB Bcd | DEF G2 :|

%%sep 1 1 500
%%sep 1 1 500

